images/burger-menu.svg

<svg width="40" height="40" viewBox="0 0 40 40" fill="none" xmlns="http://www.w3.org/2000/svg">
<path fill-rule="evenodd" clip-rule="evenodd" d="M8 14.6667V12H32V14.6667H8ZM8 21.3333H32V18.6667H8V21.3333ZM8 28H32V25.3333H8V28Z" />
</svg>

<svg xmlns="http://www.w3.org/2000/svg" width="40" height="40" fill="none"><path fill="#212121" fill-rule="evenodd" d="M8 14.667V12h24v2.667H8Zm0 6.666h24v-2.666H8v2.666ZM8 28h24v-2.667H8V28Z" clip-rule="evenodd"/></svg>
